src/24/panel/pcloud-ok.svg

<svg xmlns="http://www.w3.org/2000/svg" width="24" height="24"><defs><style id="current-color-scheme" type="text/css"></style></defs><path d="M12.5 5a6.5 6.5 0 0 0-6.01 4.031A5 5 0 0 0 2 14a5 5 0 0 0 5 5h11.75A3.25 3.25 0 0 0 22 15.75a3.237 3.237 0 0 0-1.691-2.836A3 3 0 0 0 21 11a3 3 0 0 0-3-3 3 3 0 0 0-.023 0A6.5 6.5 0 0 0 12.5 5zm0 2a4.5 4.5 0 0 1 4.5 4.5 4.5 4.5 0 0 1-4.5 4.5A4.5 4.5 0 0 1 8 11.5 4.5 4.5 0 0 1 12.5 7zm0 1A3.5 3.5 0 0 0 9 11.5a3.5 3.5 0 0 0 3.5 3.5 3.5 3.5 0 0 0 3.5-3.5A3.5 3.5 0 0 0 12.5 8zM11 9h2.5a1.5 1.5 0 0 1 1.5 1.5 1.5 1.5 0 0 1-1.5 1.5H12v2h-1v-2zm1 1v1h1.5a.5.5 0 0 0 .5-.5.5.5 0 0 0-.5-.5z" fill="currentColor" color="#bebebe"/></svg>

<svg xmlns="http://www.w3.org/2000/svg" width="24" height="24" version="1.1">
 <defs>
  <style id="current-color-scheme" type="text/css">
   .ColorScheme-Text { color:#dfdfdf; } .ColorScheme-Highlight { color:#4285f4; }
  </style>
 </defs>
 <path style="fill:currentColor" class="ColorScheme-Text" d="M 12.5,5 A 6.5,6.5 0 0 0 6.490234,9.0312501 5,5 0 0 0 2,14 5,5 0 0 0 7,19 H 18.75 C 20.544925,19 22,17.544925 22,15.75 22,14.523022 21.312228,13.467196 20.308594,12.914062 A 3,3 0 0 0 21,11 3,3 0 0 0 18,8 3,3 0 0 0 17.97656,8 6.5,6.5 0 0 0 12.499998,5 Z m 0,2 A 4.5,4.5 0 0 1 17,11.5 4.5,4.5 0 0 1 12.5,16 4.5,4.5 0 0 1 8,11.5 4.5,4.5 0 0 1 12.5,7 Z m 0,0.9999999 A 3.5,3.5 0 0 0 9,11.5 3.5,3.5 0 0 0 12.5,15 3.5,3.5 0 0 0 16,11.5 3.5,3.5 0 0 0 12.5,7.9999999 Z M 11,9 h 1 1.5 A 1.5,1.5 0 0 1 15,10.5 1.5,1.5 0 0 1 13.5,12 H 12 v 2 h -1 v -2 z m 1,1 v 1 h 1.5 A 0.5,0.5 0 0 0 14,10.5 0.5,0.5 0 0 0 13.5,10 Z"/>
</svg>
